; generated by Slic3r 1.2.9 on 2015-08-24 at 11:26:44

; external perimeters extrusion width = 0.50mm
; perimeters extrusion width = 0.50mm
; infill extrusion width = 0.50mm
; solid infill extrusion width = 0.50mm
; top infill extrusion width = 0.50mm

M107
M190 S65 ; set bed temperature
M104 S210 ; set temperature
T1

M109 S210 ; wait for temperature to be reached
G21 ; set units to millimeters
G90 ; use absolute coordinates
M83 ; use relative distances for extrusion
G1 E-4.00000 F3600.00000
G1 Z0.240 F6000.000
G1 X76.279 Y72.021 F6000.000
G1 E4.00000 F3600.00000
G1 X77.939 Y71.019 E0.14480 F600.000
G1 X79.511 Y70.752 E0.11904
G1 X124.464 Y70.752 E3.35731
G1 X140.465 Y70.930 E1.19512 F600.000
G1 X142.358 Y71.347 E0.14480
G1 X143.927 Y72.486 E0.14480
G1 X144.910 Y74.157 E0.14480
G1 X145.149 Y76.009 E0.13950
G1 X142.561 Y113.009 E2.77010
G1 X142.034 Y114.875 E0.14480
G1 X140.805 Y116.374 E0.14480
G1 X138.613 Y117.361 E0.17957
G1 X98.073 Y124.183 E3.07030
G1 X97.285 Y124.248 E0.05906
G1 X80.557 Y124.248 E1.24927
G1 X78.660 Y123.853 E0.14480
G1 X77.078 Y122.731 E0.14480
G1 X76.076 Y121.071 E0.14480
G1 X75.823 Y119.871 E0.09159
G1 X74.777 Y106.524 E0.99991
G1 X74.762 Y106.153 E0.02775
G1 X74.762 Y75.500 E2.28930
G1 X75.158 Y73.602 E0.14480
G1 X76.236 Y72.082 E0.13920
G1 E-4.00000 F3600.00000
G1 X80.659 Y104.143 F6000.000
G1 E4.00000 F3600.00000
G1 X80.585 Y103.135 E0.07549 F630.000
G1 X79.911 Y96.903 E0.46811
G1 X79.911 Y75.900 E1.56863
G1 X124.011 Y75.900 E3.29362
G1 X124.011 Y112.837 E2.75867
G1 X103.437 Y115.825 E1.55265
G1 X103.466 Y115.984 E0.01207
G1 X100.232 Y116.912 E0.25127
G1 X99.362 Y117.221 E0.06895
G1 X97.138 Y119.100 E0.21743
G1 X80.929 Y119.100 E1.21056
G1 X80.135 Y108.203 E0.81600
G1 X79.911 Y106.131 E0.15565
G1 X79.911 Y104.143 E0.14850
G1 X80.584 Y104.143 E0.05026
G1 X81.158 Y104.118 F6000.000
G1 X81.464 Y104.891 F6000.000
G1 X81.331 Y103.067 E0.13660 F900.000
G1 X80.659 Y96.863 E0.46608
G1 X80.659 Y86.422 E0.77978
G1 X81.092 Y86.406 E0.03234
G1 X81.164 Y87.399 E0.07431
G1 X86.746 Y87.399 E0.41689
G1 X86.213 Y80.089 E0.54734
G1 X80.659 Y80.089 E0.41482
G1 X80.659 Y76.648 E0.25698
G1 X123.262 Y76.648 E3.18181
G1 X123.262 Y112.190 E2.65440
G1 X102.564 Y115.195 E1.56206
G1 X102.610 Y115.451 E0.01940
G1 X100.003 Y116.199 E0.20252
G1 X98.983 Y116.561 E0.08086
G1 X96.864 Y118.352 E0.20717
G1 X81.625 Y118.352 E1.13813
G1 X80.880 Y108.136 E0.76500
G1 X80.659 Y106.091 E0.15362
G1 X80.659 Y104.891 E0.08958
G1 X81.389 Y104.891 E0.05449
G1 E-4.00000 F3600.00000
G1 X89.945 Y100.869 F6000.000
G1 E4.00000 F3600.00000
G1 X89.211 Y98.458 E0.18823 F630.000
G1 X88.963 Y95.950 E0.18819
G1 X89.211 Y93.442 E0.18819
G1 X89.945 Y91.031 E0.18823
G1 X91.138 Y88.809 E0.18834
G1 X92.742 Y86.862 E0.18845
G1 X94.697 Y85.264 E0.18857
G1 X96.927 Y84.076 E0.18870
G1 X99.346 Y83.345 E0.18879
G1 X101.843 Y83.100 E0.18736
G1 X102.078 Y83.100 E0.01756 F630.000
G1 X104.575 Y83.345 E0.18736
G1 X106.995 Y84.076 E0.18879
G1 X109.225 Y85.264 E0.18870
G1 X111.180 Y86.862 E0.18858
G1 X112.784 Y88.809 E0.18843
G1 X113.976 Y91.031 E0.18833
G1 X114.710 Y93.442 E0.18824
G1 X114.958 Y95.950 E0.18819
G1 X114.710 Y98.458 E0.18819
G1 X113.976 Y100.868 E0.18822
G1 X112.784 Y103.091 E0.18835
G1 X111.179 Y105.038 E0.18845
G1 X109.225 Y106.636 E0.18855
G1 X106.995 Y107.824 E0.18872
G1 X104.575 Y108.555 E0.18879
G1 X102.078 Y108.800 E0.18737
G1 X101.840 Y108.800 E0.01775
G1 X99.346 Y108.555 E0.18715
G1 X96.927 Y107.824 E0.18879
G1 X94.696 Y106.636 E0.18872
G1 X92.742 Y105.038 E0.18854
G1 X91.138 Y103.091 E0.18846
G1 X89.981 Y100.935 E0.18274
G1 X89.452 Y100.788 F6000.000
G1 X89.286 Y101.222 F6000.000
G1 X89.251 Y101.157 E0.00552 F900.000
G1 X88.474 Y98.605 E0.19927
G1 X88.211 Y95.950 E0.19925
G1 X88.474 Y93.295 E0.19925
G1 X89.251 Y90.743 E0.19927
G1 X90.513 Y88.390 E0.19938
G1 X92.211 Y86.329 E0.19947
G1 X94.280 Y84.638 E0.19957
G1 X96.640 Y83.381 E0.19969
G1 X99.200 Y82.607 E0.19976
G1 X101.806 Y82.352 E0.19558
G1 X102.115 Y82.352 E0.02303 F900.000
G1 X104.721 Y82.607 E0.19558
G1 X107.281 Y83.381 E0.19976
G1 X109.642 Y84.638 E0.19969
G1 X111.710 Y86.329 E0.19959
G1 X113.408 Y88.390 E0.19945
G1 X114.671 Y90.743 E0.19936
G1 X115.448 Y93.295 E0.19929
G1 X115.710 Y95.950 E0.19924
G1 X115.448 Y98.605 E0.19924
G1 X114.671 Y101.157 E0.19926
G1 X113.408 Y103.510 E0.19939
G1 X111.710 Y105.571 E0.19947
G1 X109.642 Y107.262 E0.19956
G1 X107.281 Y108.519 E0.19970
G1 X104.721 Y109.293 E0.19976
G1 X102.114 Y109.549 E0.19563
G1 X101.803 Y109.548 E0.02322
G1 X99.200 Y109.293 E0.19535
G1 X96.640 Y108.519 E0.19976
G1 X94.280 Y107.262 E0.19971
G1 X92.211 Y105.571 E0.19954
G1 X90.513 Y103.510 E0.19948
G1 X89.321 Y101.289 E0.18825
G1 E-4.00000 F3600.00000
G1 X87.228 Y106.500 F6000.000
G1 E4.00000 F3600.00000
G1 X87.504 Y112.312 E0.43457 F780.000
G1 X83.731 Y112.313 E0.28176
G1 X83.307 Y106.500 E0.43524
G1 X87.153 Y106.500 E0.28719
G1 X87.727 Y106.484 F6000.000
G1 X87.941 Y105.752 F6000.000
G1 X88.289 Y113.061 E0.54650 F780.000
G1 X83.035 Y113.061 E0.39235
G1 X82.502 Y105.752 E0.54734
G1 X87.866 Y105.752 E0.40063
G1 E-4.00000 F3600.00000
G1 X92.019 Y114.295 F6000.000
G1 E4.00000 F3600.00000
G1 X97.085 Y111.464 E0.43346 F780.000
G1 X98.682 Y114.217 E0.23768
G1 X93.588 Y117.001 E0.43354
G1 X92.056 Y114.360 E0.22804
G1 X91.772 Y113.860 F6000.000
G1 X90.989 Y114.013 F6000.000
G1 X97.363 Y110.451 E0.54528 F780.000
G1 X99.715 Y114.505 E0.35002
G1 X93.307 Y118.008 E0.54538
G1 X91.027 Y114.078 E0.33935
G1 E-4.00000 F3600.00000
G1 X85.941 Y86.650 F6000.000
G1 E4.00000 F3600.00000
G1 X81.860 Y86.650 E0.30479 F780.000
G1 X81.589 Y82.933 E0.27831
G1 X81.362 Y80.838 E0.15743
G1 X85.517 Y80.838 E0.31032
G1 X85.936 Y86.575 E0.42964
G1 X85.953 Y87.150 F6000.000
G1 E-4.00000 F3600.00000
G1 X80.862 Y86.040 F6000.000
G1 E4.00000 F3600.00000
G1 X80.752 Y83.009 E0.46859 F600.000
G1 X80.614 Y80.464 E0.39391
G1 E-4.00000 F3600.00000
G1 X81.562 Y105.266 F6000.000
G1 E4.00000 F3600.00000
G1 X81.590 Y106.040 E0.11981 F600.000
G1 X81.773 Y108.064 E0.31393
G1 X82.165 Y113.435 E0.83212
G1 E-4.00000 F3600.00000
G1 X94.214 Y117.959 F6000.000
G1 E4.00000 F3600.00000
G1 X95.907 Y117.527 E0.13050 F600.000
G1 X96.369 Y117.228 F6000.000
G1 X96.764 Y117.623 E0.04169 F900.000
G1 X97.040 Y117.008 F6000.000
G1 X98.676 Y115.900 E0.30533 F600.000
G1 X99.741 Y115.424 E0.18018
G1 X100.488 Y115.116 E0.12489
G1 X102.024 Y115.185 F6000.000
G1 X99.001 Y112.163 E0.32078 F900.000
G1 E-4.00000 F3600.00000
G1 X99.864 Y109.834 F6000.000
G1 E4.00000 F3600.00000
G1 X104.503 Y114.473 E0.49237 F900.000
G1 X103.574 Y114.608 E0.07044
G1 X98.615 Y109.649 E0.52632
G1 X97.091 Y109.188 F6000.000
G1 X102.645 Y114.743 E0.58952 F900.000
G1 E-4.00000 F3600.00000
G1 X101.043 Y109.950 F6000.000
G1 E4.00000 F3600.00000
G1 X105.432 Y114.338 E0.46577 F900.000
G1 X106.360 Y114.203 E0.07044
G1 X102.147 Y109.990 E0.44715
G1 X103.116 Y109.895 E0.07304
G1 X107.289 Y114.068 E0.44292
G1 X108.218 Y113.933 E0.07044
G1 X104.085 Y109.800 E0.43869
G1 X104.995 Y109.647 E0.06930
G1 X109.147 Y113.799 E0.44063
G1 X110.076 Y113.664 E0.07044
G1 X105.812 Y109.400 E0.45251
G1 X106.629 Y109.153 E0.06404
G1 X111.004 Y113.529 E0.46440
G1 X111.933 Y113.394 E0.07044
G1 X107.433 Y108.893 E0.47767
G1 X108.127 Y108.524 E0.05901
G1 X112.862 Y113.259 E0.50258
G1 X113.791 Y113.124 E0.07044
G1 X108.821 Y108.154 E0.52749
G1 X109.515 Y107.785 E0.05901
G1 X114.720 Y112.989 E0.55240
G1 X115.648 Y112.854 E0.07044
G1 X110.149 Y107.355 E0.58369
G1 X110.734 Y106.876 E0.05673
G1 X116.577 Y112.720 E0.62015
G1 X117.506 Y112.585 E0.07044
G1 X111.319 Y106.398 E0.65662
G1 X111.905 Y105.920 E0.05673
G1 X118.435 Y112.450 E0.69309
G1 X119.364 Y112.315 E0.07044
G1 X112.400 Y105.351 E0.73908
G1 X112.881 Y104.768 E0.05671
G1 X120.292 Y112.180 E0.78666
G1 X121.221 Y112.045 E0.07044
G1 X113.361 Y104.185 E0.83425
G1 X113.824 Y103.584 E0.05692
G1 X122.150 Y111.910 E0.88370
G1 X122.805 Y111.501 E0.05793
G1 X114.195 Y102.892 E0.91377
G1 X114.567 Y102.200 E0.05896
G1 X122.805 Y110.438 E0.87434
G1 X122.805 Y109.374 E0.07983
G1 X114.938 Y101.507 E0.83492
G1 X115.235 Y100.740 E0.06172
G1 X122.805 Y108.310 E0.80345
G1 X122.805 Y107.247 E0.07983
G1 X115.483 Y99.925 E0.77710
G1 X115.731 Y99.109 E0.06397
G1 X122.805 Y106.183 E0.75075
G1 X122.805 Y105.119 E0.07983
G1 X115.928 Y98.243 E0.72983
G1 X116.024 Y97.275 E0.07300
G1 X122.805 Y104.056 E0.71967
G1 X122.805 Y102.992 E0.07983
G1 X116.120 Y96.307 E0.70951
G1 X116.116 Y95.240 E0.08010
G1 X122.805 Y101.928 E0.70989
G1 X122.805 Y100.864 E0.07983
G1 X115.999 Y94.059 E0.72228
G1 X115.843 Y92.839 E0.09236
G1 X122.805 Y99.801 E0.73894
G1 X122.805 Y98.737 E0.07983
G1 X115.377 Y91.309 E0.78837
G1 X114.628 Y89.496 F6000.000
G1 X122.805 Y97.673 E0.86789 F900.000
G1 E-4.00000 F3600.00000
G1 X108.580 Y83.448 F6000.000
G1 E4.00000 F3600.00000
G1 X102.237 Y77.106 E0.67314 F900.000
G1 X103.301 Y77.106 E0.07983
G1 X122.805 Y96.610 E2.07003
G1 X122.805 Y95.546 E0.07983
G1 X104.365 Y77.106 E1.95714
G1 X105.428 Y77.106 E0.07983
G1 X122.805 Y94.482 E1.84425
G1 X122.805 Y93.419 E0.07983
G1 X106.492 Y77.106 E1.73135
G1 X107.556 Y77.106 E0.07983
G1 X122.805 Y92.355 E1.61846
G1 X122.805 Y91.291 E0.07983
G1 X108.619 Y77.106 E1.50557
G1 X109.683 Y77.106 E0.07983
G1 X122.805 Y90.228 E1.39267
G1 X122.805 Y89.164 E0.07983
G1 X110.747 Y77.106 E1.27978
G1 X111.810 Y77.106 E0.07983
G1 X122.805 Y88.100 E1.16689
G1 X122.805 Y87.037 E0.07983
G1 X112.874 Y77.106 E1.05399
G1 X113.938 Y77.106 E0.07983
G1 X122.805 Y85.973 E0.94110
G1 X122.805 Y84.909 E0.07983
G1 X115.001 Y77.106 E0.82820
G1 X116.065 Y77.106 E0.07983
G1 X122.805 Y83.846 E0.71531
G1 X122.805 Y82.782 E0.07983
G1 X117.129 Y77.106 E0.60242
G1 X118.192 Y77.106 E0.07983
G1 X122.805 Y81.718 E0.48952
G1 X122.805 Y80.655 E0.07983
G1 X119.256 Y77.106 E0.37663
G1 X120.320 Y77.106 E0.07983
G1 X122.805 Y79.591 E0.26374
G1 X122.805 Y78.527 E0.07983
G1 X121.384 Y77.106 E0.15084
G1 X122.447 Y77.106 E0.07983
G1 X122.805 Y77.463 E0.03795
G1 E-4.00000 F3600.00000
G1 X106.757 Y82.690 F6000.000
G1 E4.00000 F3600.00000
G1 X101.174 Y77.106 E0.59262 F900.000
G1 X100.110 Y77.106 E0.07983
G1 X105.233 Y82.229 E0.54373
G1 X104.001 Y82.061 E0.09332
G1 X99.046 Y77.106 E0.52586
G1 X97.982 Y77.106 E0.07983
G1 X102.821 Y81.945 E0.51358
G1 X101.727 Y81.914 E0.08214
G1 X96.919 Y77.106 E0.51035
G1 X95.855 Y77.106 E0.07983
G1 X100.759 Y82.010 E0.52044
G1 X99.790 Y82.105 E0.07304
G1 X94.791 Y77.106 E0.53053
G1 X93.728 Y77.106 E0.07983
G1 X98.887 Y82.265 E0.54755
G1 X98.070 Y82.512 E0.06404
G1 X92.664 Y77.106 E0.57375
G1 X91.600 Y77.106 E0.07983
G1 X97.253 Y82.759 E0.59995
G1 X96.455 Y83.024 E0.06312
G1 X90.537 Y77.106 E0.62816
G1 X89.473 Y77.106 E0.07983
G1 X95.761 Y83.394 E0.66739
G1 X95.067 Y83.764 E0.05902
G1 X88.409 Y77.106 E0.70661
G1 X87.346 Y77.106 E0.07983
G1 X94.373 Y84.133 E0.74584
G1 X93.744 Y84.568 E0.05738
G1 X86.282 Y77.106 E0.79200
G1 X85.218 Y77.106 E0.07983
G1 X93.159 Y85.047 E0.84278
G1 X92.574 Y85.525 E0.05673
G1 X84.155 Y77.106 E0.89356
G1 X83.091 Y77.106 E0.07983
G1 X85.617 Y79.632 E0.26809
G1 X84.553 Y79.632 E0.07983
G1 X82.027 Y77.106 E0.26809
G1 X81.117 Y77.259 E0.06930
G1 X83.490 Y79.632 E0.25185
G1 X82.426 Y79.632 E0.07983
G1 X81.117 Y78.323 E0.13896
G1 E-4.00000 F3600.00000
G1 X86.732 Y80.747 F6000.000
G1 E4.00000 F3600.00000
G1 X91.989 Y86.004 E0.55791 F900.000
G1 X91.498 Y86.577 E0.05662
G1 X86.816 Y81.894 E0.49698
G1 X86.899 Y83.042 E0.08633
G1 X91.018 Y87.160 E0.43711
G1 X90.537 Y87.743 E0.05671
G1 X86.983 Y84.189 E0.37724
G1 X87.067 Y85.336 E0.08633
G1 X90.080 Y88.349 E0.31979
G1 X89.708 Y89.042 E0.05896
G1 X87.150 Y86.484 E0.27149
G1 X87.234 Y87.631 E0.08633
G1 X89.337 Y89.734 E0.22319
G1 X88.965 Y90.426 E0.05896
G1 X86.395 Y87.856 E0.27278
G1 X85.331 Y87.856 E0.07983
G1 X88.675 Y91.199 E0.35483
G1 X88.426 Y92.015 E0.06397
G1 X84.268 Y87.856 E0.44137
G1 X83.204 Y87.856 E0.07983
G1 X88.178 Y92.830 E0.52792
G1 X87.988 Y93.704 E0.06711
G1 X82.140 Y87.856 E0.62067
G1 X81.117 Y87.896 E0.07690
G1 X87.893 Y94.672 E0.71918
G1 X87.797 Y95.640 E0.07300
G1 X81.117 Y88.959 E0.70902
G1 X81.117 Y90.023 E0.07983
G1 X87.811 Y96.717 E0.71048
G1 X87.927 Y97.898 E0.08902
G1 X81.117 Y91.087 E0.72287
G1 X81.117 Y92.150 E0.07983
G1 X88.101 Y99.135 E0.74132
G1 X88.567 Y100.665 E0.11998
G1 X81.117 Y93.214 E0.79075
G1 X81.117 Y94.278 E0.07983
G1 X89.353 Y102.514 E0.87419
G1 E-4.00000 F3600.00000
G1 X87.878 Y105.294 F6000.000
G1 E4.00000 F3600.00000
G1 X81.343 Y98.759 E0.69368 F900.000
G1 X81.472 Y99.951 E0.09004
G1 X86.815 Y105.294 E0.56708
G1 X85.751 Y105.294 E0.07983
G1 X81.601 Y101.144 E0.44048
G1 X81.730 Y102.337 E0.09004
G1 X84.687 Y105.294 E0.31389
G1 X83.624 Y105.294 E0.07983
G1 X81.833 Y103.504 E0.19003
G1 E-4.00000 F3600.00000
G1 X81.213 Y97.566 F6000.000
G1 E4.00000 F3600.00000
G1 X94.975 Y111.327 E1.46059 F900.000
G1 X94.293 Y111.709 E0.05866
G1 X88.411 Y105.827 E0.62429
G1 X88.464 Y106.943 E0.08390
G1 X93.610 Y112.090 E0.54624
G1 X92.928 Y112.471 E0.05866
G1 X88.517 Y108.060 E0.46818
G1 X88.570 Y109.177 E0.08390
G1 X92.246 Y112.853 E0.39013
G1 X91.563 Y113.234 E0.05866
G1 X88.623 Y110.293 E0.31208
G1 X88.676 Y111.410 E0.08390
G1 X90.881 Y113.615 E0.23403
G1 X90.522 Y114.320 F6000.000
G1 X88.729 Y112.527 E0.19032 F900.000
G1 X88.657 Y113.518 E0.07461
G1 X91.992 Y116.853 E0.35396
G1 X91.969 Y117.894 E0.07812
G1 X87.593 Y113.518 E0.46441
G1 X86.529 Y113.518 E0.07983
G1 X90.905 Y117.894 E0.46441
G1 X89.841 Y117.894 E0.07983
G1 X85.466 Y113.518 E0.46441
G1 X84.402 Y113.518 E0.07983
G1 X88.778 Y117.894 E0.46441
G1 X87.714 Y117.894 E0.07983
G1 X83.452 Y113.632 E0.45237
G1 X82.607 Y113.851 E0.06551
G1 X86.650 Y117.894 E0.42916
G1 X85.587 Y117.894 E0.07983
G1 X81.785 Y114.093 E0.40343
G1 X81.869 Y115.240 E0.08633
G1 X84.523 Y117.894 E0.28166
G1 X83.459 Y117.894 E0.07983
G1 X81.953 Y116.388 E0.15989
G1 X82.036 Y117.535 E0.08633
G1 X82.395 Y117.894 E0.03812
G1 E-4.00000 F3600.00000
G1 X95.657 Y110.946 F6000.000
G1 E4.00000 F3600.00000
G1 X81.117 Y96.405 E1.54329 F900.000
G1 X81.117 Y95.342 E0.07983
G1 X96.340 Y110.565 E1.61572
G1 X97.022 Y110.183 E0.05866
G1 X95.232 Y108.393 E0.19000
G1 E-4.00000 F3600.00000
G1 Z0.240 F6000.000
G1 X132.128 Y112.278 F6000.000
G1 E4.00000 F3600.00000
G1 X132.128 Y76.078 E2.70360 F630.000
G1 X139.983 Y76.078 E0.58666
G1 X137.452 Y112.278 E2.71021
G1 X132.203 Y112.278 E0.39201
G1 X132.378 Y111.845 F6000.000
G1 E-4.00000 F3600.00000
G1 X133.551 Y84.139 F6000.000
G1 E4.00000 F3600.00000
G1 X138.093 Y84.457 E0.34011 F900.000
G1 X138.627 Y76.827 E0.57125
G1 X139.180 Y76.827 E0.04133
G1 X138.371 Y88.401 E0.86654
G1 X137.958 Y87.898 E0.04861
G1 X137.480 Y87.506 E0.04616
G1 X136.935 Y87.214 E0.04619
G1 X136.343 Y87.035 E0.04619
G1 X135.784 Y86.980 E0.04194
G1 X135.231 Y86.980 E0.04128
G1 X134.672 Y87.035 E0.04195
G1 X134.081 Y87.214 E0.04618
G1 X133.535 Y87.506 E0.04618
G1 X132.876 Y88.047 E0.06369
G1 X132.876 Y76.827 E0.83797
G1 X134.062 Y76.827 E0.08855
G1 X133.556 Y84.064 E0.54187
G1 X134.349 Y83.445 F6000.000
G1 X134.754 Y77.659 E0.43317 F780.000
G1 X137.803 Y77.872 E0.22830
G1 X137.399 Y83.658 E0.43317
G1 X134.424 Y83.450 E0.22270
G1 X133.851 Y83.410 F6000.000
G1 E-4.00000 F3600.00000
G1 X134.819 Y87.772 F6000.000
G1 E4.00000 F3600.00000
G1 X135.268 Y87.728 E0.03369 F780.000
G1 X135.747 Y87.728 E0.03579 F780.000
G1 X136.196 Y87.772 E0.03369
G1 X136.647 Y87.909 E0.03517
G1 X137.062 Y88.131 E0.03517
G1 X137.426 Y88.430 E0.03516
G1 X137.725 Y88.794 E0.03517
G1 X137.947 Y89.209 E0.03516
G1 X138.084 Y89.659 E0.03517
G1 X138.128 Y90.108 E0.03369
G1 X138.128 Y96.148 E0.45104
G1 X138.084 Y96.597 E0.03369
G1 X137.947 Y97.047 E0.03517
G1 X137.725 Y97.462 E0.03516
G1 X137.426 Y97.826 E0.03517
G1 X137.062 Y98.125 E0.03516
G1 X136.647 Y98.347 E0.03517
G1 X136.196 Y98.484 E0.03517
G1 X135.747 Y98.528 E0.03369
G1 X135.268 Y98.528 E0.03579
G1 X134.819 Y98.484 E0.03369
G1 X134.369 Y98.347 E0.03516
G1 X133.953 Y98.125 E0.03517
G1 X133.589 Y97.826 E0.03517
G1 X133.291 Y97.462 E0.03517
G1 X133.069 Y97.047 E0.03516
G1 X132.932 Y96.597 E0.03517
G1 X132.888 Y96.148 E0.03369
G1 X132.888 Y90.108 E0.45105
G1 X132.932 Y89.659 E0.03369
