; generated by Slic3r 1.2.9 on 2015-10-11 at 19:36:49

; external perimeters extrusion width = 0.50mm
; perimeters extrusion width = 0.50mm
; infill extrusion width = 0.50mm
; solid infill extrusion width = 0.50mm
; top infill extrusion width = 0.50mm

M107
M190 S65 ; set bed temperature
M104 S210 ; set temperature
T1

M109 S210 ; wait for temperature to be reached
G21 ; set units to millimeters
G90 ; use absolute coordinates
M83 ; use relative distances for extrusion
G1 E-4.00000 F3600.00000
G1 Z0.240 F6000.000
G1 X85.708 Y61.366 F6000.000
G1 E4.00000 F3600.00000
G1 X92.605 Y51.733 E0.88482 F600.000
G1 X95.815 Y47.756 E0.38170
G1 X96.517 Y47.054 E0.07414
G1 X100.270 Y44.015 E0.36067
G1 X101.102 Y43.474 E0.07414
G1 X105.405 Y41.282 E0.36067
G1 X106.332 Y40.926 E0.07414
G1 X110.997 Y39.676 E0.36067
G1 X111.608 Y39.555 E0.04653
G1 X132.263 Y36.843 E1.55588
G1 X134.196 Y36.989 E0.14480
G1 X136.238 Y38.194 E0.17707 F600.000
G1 X147.552 Y49.508 E1.19496
G1 X148.614 Y51.130 E0.14480
G1 X148.941 Y52.720 E0.12123
G1 X150.683 Y109.440 E4.23814
G1 X150.657 Y110.099 E0.04927
G1 X150.447 Y112.033 E0.14535
G1 X150.226 Y113.036 E0.07669
G1 X149.604 Y114.881 E0.14540
G1 X140.232 Y140.392 E2.02976
G1 X139.887 Y141.128 E0.06073
G1 X137.274 Y145.654 E0.39033
G1 X136.691 Y146.457 E0.07414
G1 X133.229 Y150.302 E0.38643
G1 X132.456 Y151.006 E0.07803
G1 X128.227 Y154.078 E0.39034
G1 X127.368 Y154.574 E0.07414
G1 X122.593 Y156.700 E0.39034
G1 X121.649 Y157.006 E0.07413
G1 X116.537 Y158.093 E0.39035
G1 X115.550 Y158.197 E0.07414
G1 X110.323 Y158.197 E0.39034
G1 X109.336 Y158.093 E0.07414
G1 X104.224 Y157.006 E0.39034
G1 X103.232 Y156.679 E0.07801
G1 X98.505 Y154.574 E0.38645
G1 X97.645 Y154.078 E0.07414
G1 X93.417 Y151.006 E0.39034
G1 X92.679 Y150.341 E0.07415
G1 X89.182 Y146.457 E0.39033
G1 X88.599 Y145.654 E0.07414
G1 X85.985 Y141.128 E0.39034
G1 X85.582 Y140.221 E0.07413
G1 X83.936 Y135.154 E0.39787
G1 X69.517 Y87.343 E3.72962
G1 X69.348 Y85.412 E0.14480
G1 X70.022 Y83.480 E0.15284
G1 X71.032 Y81.864 E0.14228
G1 X85.664 Y61.427 E1.87728
G1 E-4.00000 F3600.00000
G1 X128.023 Y106.035 F6000.000
G1 E4.00000 F3600.00000
G1 X131.169 Y106.035 E0.23500 F630.000
G1 X131.169 Y110.596 E0.34062
G1 X131.865 Y112.511 E0.15219
G1 X133.172 Y114.073 E0.15209
G1 X134.933 Y115.092 E0.15200
G1 X136.936 Y115.446 E0.15193
G1 X138.940 Y115.092 E0.15193
G1 X140.701 Y114.073 E0.15200
G1 X142.008 Y112.511 E0.15209
G1 X142.704 Y110.596 E0.15219
G1 X142.704 Y106.035 E0.34062
G1 X144.760 Y106.035 E0.15356
G1 X145.333 Y107.737 E0.13412
G1 X145.534 Y109.585 E0.13885
G1 X145.333 Y111.434 E0.13885
G1 X144.727 Y113.231 E0.14170
G1 X135.411 Y138.584 E2.01721
G1 X132.836 Y143.044 E0.38463
G1 X129.396 Y146.865 E0.38405
G1 X125.235 Y149.888 E0.38406
G1 X120.538 Y151.979 E0.38406
G1 X115.508 Y153.048 E0.38406
G1 X110.365 Y153.048 E0.38406
G1 X105.335 Y151.979 E0.38406
G1 X100.637 Y149.888 E0.38406
G1 X96.477 Y146.865 E0.38406
G1 X93.036 Y143.044 E0.38405
G1 X90.465 Y138.590 E0.38406
G1 X88.892 Y133.749 E0.38018
G1 X88.339 Y128.585 E0.38788
G1 X88.876 Y123.471 E0.38403
G1 X90.465 Y118.581 E0.38406
G1 X93.041 Y114.119 E0.38473
G1 X107.142 Y96.965 E1.65843
G1 X110.536 Y96.597 E0.25502
G1 X110.536 Y105.424 E0.65921
G1 X105.742 Y106.443 E0.36609
G1 X101.295 Y108.422 E0.36352
G1 X97.358 Y111.283 E0.36352
G1 X94.101 Y114.900 E0.36351
G1 X91.667 Y119.116 E0.36352
G1 X90.163 Y123.745 E0.36352
G1 X90.081 Y124.527 E0.05875
G1 X89.654 Y128.585 E0.30476
G1 X90.163 Y133.426 E0.36352
G1 X91.667 Y138.055 E0.36352
G1 X94.101 Y142.270 E0.36352
G1 X97.358 Y145.887 E0.36351
G1 X101.295 Y148.748 E0.36352
G1 X105.742 Y150.728 E0.36352
G1 X110.503 Y151.740 E0.36352
G1 X115.370 Y151.740 E0.36352
G1 X120.131 Y150.728 E0.36352
G1 X124.577 Y148.748 E0.36352
G1 X128.515 Y145.887 E0.36352
G1 X131.772 Y142.270 E0.36351
G1 X134.206 Y138.055 E0.36352
G1 X135.710 Y133.426 E0.36352
G1 X136.219 Y128.585 E0.36352
G1 X135.710 Y123.745 E0.36352
G1 X134.206 Y119.116 E0.36352
G1 X131.772 Y114.900 E0.36352
G1 X128.515 Y111.283 E0.36351
G1 X124.577 Y108.422 E0.36352
G1 X120.131 Y106.443 E0.36352
G1 X115.336 Y105.424 E0.36609
G1 X115.336 Y96.076 E0.69811
G1 X128.453 Y94.653 E0.98534
G1 X128.453 Y93.277 E0.10278
G1 X129.251 Y91.756 E0.12826
G1 X130.663 Y90.781 E0.12819
G1 X132.386 Y90.580 E0.12952
G1 X133.975 Y91.182 E0.12691
G1 X135.114 Y92.469 E0.12836
G1 X135.543 Y94.163 E0.13052
G1 X136.913 Y103.712 E0.72043
G1 X134.933 Y104.062 E0.15017
G1 X134.336 Y104.407 E0.05150
G1 X134.336 Y94.044 E0.77395
G1 X133.460 Y92.225 E0.15083
G1 X131.393 Y91.753 E0.15839
G1 X129.753 Y93.060 E0.15658
G1 X129.394 Y96.614 E0.26680
G1 X129.293 Y96.544 E0.00924
G1 X128.033 Y105.961 E0.70960
G1 X128.000 Y106.535 F6000.000
G1 E-4.00000 F3600.00000
G1 X109.788 Y104.817 F6000.000
G1 E4.00000 F3600.00000
G1 X105.509 Y105.727 E0.32669 F780.000
G1 X100.919 Y107.771 E0.37527
G1 X97.982 Y109.904 E0.27110
G1 X97.711 Y109.616 E0.02952
G1 X107.526 Y97.677 E1.15434
G1 X109.788 Y97.431 E0.16992
G1 X109.788 Y104.742 E0.54605
G1 E-4.00000 F3600.00000
G1 X127.167 Y106.784 F6000.000
G1 E4.00000 F3600.00000
G1 X130.421 Y106.784 E0.24298 F900.000
G1 X130.421 Y110.728 E0.29455
G1 X131.035 Y112.421 E0.13453
G1 X130.718 Y112.611 E0.02764
G1 X129.019 Y110.724 E0.18967
G1 X124.954 Y107.771 E0.37527
G1 X120.364 Y105.727 E0.37527
G1 X116.085 Y104.817 E0.32669
G1 X116.085 Y96.748 E0.60268
G1 X128.693 Y95.380 E0.94718
G1 X127.177 Y106.710 E0.85372
G1 E-4.00000 F3600.00000
G1 X135.085 Y103.275 F6000.000
G1 E4.00000 F3600.00000
G1 X135.085 Y99.175 E0.30617 F780.000
G1 X135.502 Y99.145 E0.03123
G1 X136.069 Y103.101 E0.29842
G1 X135.159 Y103.262 E0.06907
G1 E-4.00000 F3600.00000
G1 X143.452 Y106.784 F6000.000
G1 E4.00000 F3600.00000
G1 X144.222 Y106.784 E0.05750 F900.000
G1 X144.598 Y107.899 E0.08789
G1 X144.781 Y109.585 E0.12669
G1 X144.598 Y111.272 E0.12669
G1 X144.021 Y112.983 E0.13486
G1 X136.998 Y132.095 E1.52073
G1 X136.612 Y132.005 E0.02963
G1 X136.971 Y128.585 E0.25683
G1 X136.446 Y123.588 E0.37527
G1 X134.893 Y118.810 E0.37527
G1 X132.734 Y115.069 E0.32257
G1 X132.978 Y114.825 E0.02575
G1 X134.673 Y115.806 E0.14626
G1 X136.936 Y116.207 E0.17169
G1 X139.200 Y115.806 E0.17169
G1 X141.190 Y114.655 E0.17173
G1 X142.667 Y112.891 E0.17179
G1 X143.452 Y110.728 E0.17187
G1 X143.452 Y106.859 E0.28895
G1 X143.888 Y107.158 F6000.000
G1 X144.030 Y108.024 E0.06553 F600.000
G1 X144.053 Y108.455 E0.03221
G1 X144.053 Y108.455 F6000.000
G1 X144.115 Y109.585 E0.17498 F600.000
G1 X144.053 Y110.716 E0.17498
G1 X144.065 Y110.756 F6000.000
G1 X143.977 Y111.135 E0.06018 F600.000
G1 X143.257 Y113.175 E0.33427
G1 X142.601 Y114.326 E0.20465
G1 X142.758 Y115.225 F6000.000
G1 X142.370 Y114.837 E0.04140 F900.000
G1 X141.436 Y114.973 E0.07122
G1 X142.470 Y116.007 E0.11041
G1 X142.183 Y116.789 E0.06288
G1 X140.759 Y115.365 E0.15197
G1 X140.082 Y115.758 E0.05906
G1 X141.896 Y117.572 E0.19359
G1 X141.608 Y118.354 E0.06288
G1 X139.404 Y116.150 E0.23521
G1 X138.546 Y116.361 E0.06669
G1 X141.321 Y119.136 E0.29612
G1 X141.033 Y119.918 E0.06288
G1 X137.637 Y116.522 E0.36244
G1 X136.707 Y116.661 E0.07097
G1 X140.746 Y120.700 E0.43102
G1 X140.459 Y121.482 E0.06288
G1 X135.408 Y116.431 E0.53900
G1 X133.982 Y116.075 E0.11092
G1 X140.171 Y122.264 E0.66051
G1 X139.884 Y123.046 E0.06288
G1 X135.331 Y118.494 E0.48582
G1 X135.846 Y120.078 E0.12570
G1 X139.596 Y123.828 E0.40022
G1 X139.309 Y124.611 E0.06288
G1 X136.361 Y121.663 E0.31461
G1 X136.876 Y123.247 E0.12570
G1 X139.022 Y125.393 E0.22900
G1 X138.734 Y126.175 E0.06288
G1 X137.015 Y124.455 E0.18352
G1 X137.140 Y125.650 E0.09068
G1 X138.447 Y126.957 E0.13944
G1 X137.629 Y127.208 E0.06458
G1 X137.266 Y126.845 E0.03874
G1 X137.720 Y127.702 F6000.000
G1 X137.604 Y128.612 E0.06856 F600.000
G1 X137.169 Y130.484 E0.14350
G1 X136.720 Y132.415 F6000.000
G1 X136.436 Y133.620 E0.19141 F600.000
G1 X134.815 Y138.304 E0.76579
G1 X132.304 Y142.656 E0.77637
G1 X128.955 Y146.376 E0.77326
G1 X124.880 Y149.330 E0.77773
G1 X120.305 Y151.360 E0.77319
G1 X115.439 Y152.393 E0.76873
G1 X110.463 Y152.394 E0.76873
G1 X105.539 Y151.353 E0.77773
G1 X100.967 Y149.317 E0.77327
G1 X96.918 Y146.376 E0.77327
G1 X93.554 Y142.631 E0.77772
G1 X91.067 Y138.322 E0.76874
G1 X89.535 Y133.611 E0.76537
G1 X89.000 Y128.615 E0.77648
G1 X89.520 Y123.608 E0.77772
G1 X91.067 Y118.848 E0.77327
G1 X93.583 Y114.494 E0.77695
G1 X96.813 Y110.740 E0.76527
G1 X97.574 Y110.017 E0.16224
G1 X98.989 Y108.684 F6000.000
G1 X100.558 Y107.207 E0.16094 F600.000
G1 X101.144 Y106.756 E0.05523
G1 X101.601 Y106.389 F6000.000
G1 X102.039 Y106.827 E0.04933 F900.000
G1 X102.820 Y106.479 E0.06806
G1 X101.711 Y105.370 E0.12493
G1 X102.220 Y104.750 E0.06384
G1 X103.601 Y106.131 E0.15553
G1 X104.382 Y105.784 E0.06806
G1 X102.729 Y104.131 E0.18612
G1 X103.238 Y103.512 E0.06384
G1 X105.163 Y105.436 E0.21672
G1 X106.033 Y105.178 E0.07229
G1 X103.747 Y102.892 E0.25740
G1 X104.256 Y102.273 E0.06384
G1 X106.964 Y104.980 E0.30487
G1 X107.894 Y104.782 E0.07576
G1 X104.765 Y101.653 E0.35234
G1 X105.275 Y101.034 E0.06384
G1 X108.825 Y104.585 E0.39981
G1 X109.330 Y103.961 E0.06388
G1 X105.784 Y100.415 E0.39938
G1 X106.293 Y99.795 E0.06384
G1 X109.330 Y102.833 E0.34205
G1 X109.330 Y101.704 E0.08985
G1 X106.802 Y99.176 E0.28472
G1 X107.311 Y98.557 E0.06384
G1 X109.330 Y100.576 E0.22739
G1 X109.330 Y99.447 E0.08985
G1 X107.957 Y98.074 E0.15469
G1 X108.975 Y97.963 E0.08153
G1 X109.330 Y98.319 E0.04005
G1 E-4.00000 F3600.00000
G1 X116.542 Y104.123 F6000.000
G1 E4.00000 F3600.00000
G1 X116.906 Y104.487 E0.03917 F900.000
G1 X118.277 Y104.778 E0.10681
G1 X116.542 Y103.044 E0.18691
G1 X116.542 Y101.964 E0.08227
G1 X119.648 Y105.070 E0.33466
G1 X121.148 Y105.490 E0.11864
G1 X116.542 Y100.884 E0.49622
G1 X116.542 Y99.804 E0.08227
G1 X123.094 Y106.356 E0.70593
G1 E-4.00000 F3600.00000
G1 X125.041 Y107.223 F6000.000
G1 E4.00000 F3600.00000
G1 X116.542 Y98.724 E0.91564 F900.000
G1 X116.542 Y97.645 E0.08227
G1 X128.597 Y109.699 E1.29880
G1 E-4.00000 F3600.00000
G1 X129.963 Y107.826 F6000.000
G1 E4.00000 F3600.00000
G1 X129.378 Y107.241 E0.06302 F900.000
G1 X128.299 Y107.241 E0.08227
G1 X129.963 Y108.906 E0.17936
G1 X129.963 Y109.986 E0.08227
G1 X127.219 Y107.241 E0.29571
G1 X126.730 Y106.752 F6000.000
G1 X117.063 Y97.086 E1.04154 F900.000
G1 X118.037 Y96.980 E0.07465
G1 X126.857 Y105.800 E0.95032
G1 X126.985 Y104.848 E0.07320
G1 X119.011 Y96.874 E0.85909
G1 X119.985 Y96.768 E0.07465
G1 X127.112 Y103.895 E0.76787
G1 X127.240 Y102.943 E0.07320
G1 X120.959 Y96.663 E0.67665
G1 X121.933 Y96.557 E0.07465
G1 X127.367 Y101.990 E0.58543
G1 X127.494 Y101.038 E0.07320
G1 X122.908 Y96.451 E0.49420
G1 X123.882 Y96.346 E0.07465
G1 X127.622 Y100.086 E0.40298
G1 X127.749 Y99.133 E0.07320
G1 X124.856 Y96.240 E0.31176
G1 X125.830 Y96.134 E0.07465
G1 X127.877 Y98.181 E0.22053
G1 X128.004 Y97.229 E0.07320
G1 X126.804 Y96.028 E0.12931
G1 X127.778 Y95.923 E0.07465
G1 X128.132 Y96.276 E0.03809
G1 X129.044 Y95.917 F6000.000
G1 X129.156 Y94.960 E0.07201 F600.000
G1 X129.120 Y94.883 E0.00635
G1 X129.015 Y94.779 E0.01103
G1 X129.083 Y93.432 E0.10075
G1 X129.257 Y92.851 E0.04528
G1 X129.309 Y92.755 E0.00817
G1 X129.461 Y92.570 E0.01790
G1 X129.461 Y92.570 F6000.000
G1 X129.761 Y92.208 E0.07262 F600.000
G1 X131.054 Y91.248 E0.24883
G1 X131.709 Y91.236 F6000.000
G1 X132.301 Y91.269 E0.09158 F600.000
G1 X133.360 Y91.589 E0.17098
G1 X133.360 Y91.589 F6000.000
G1 X133.637 Y91.672 E0.02159 F600.000
G1 X133.755 Y91.742 E0.01029
G1 X133.854 Y91.835 E0.01010
G1 X134.086 Y92.185 E0.03137
G1 X134.086 Y92.185 F6000.000
G1 X134.493 Y92.797 E0.11364 F600.000
G1 X134.808 Y93.663 E0.14229
G1 X134.934 Y94.117 F6000.000
G1 X135.267 Y98.787 E0.72339 F600.000
G1 E-4.00000 F3600.00000
G1 X131.052 Y112.847 F6000.000
G1 E4.00000 F3600.00000
G1 X132.620 Y114.653 E0.36957 F600.000
G1 E-4.00000 F3600.00000
G1 Z0.240 F6000.000
G1 X121.629 Y67.067 F6000.000
G1 E4.00000 F3600.00000
G1 X121.629 Y58.723 E0.62315 F630.000
G1 X121.556 Y57.982 E0.05565
G1 X121.334 Y57.250 E0.05713
G1 X120.974 Y56.575 E0.05713
G1 X120.488 Y55.984 E0.05713
G1 X119.897 Y55.498 E0.05713
G1 X119.222 Y55.138 E0.05713
G1 X118.490 Y54.916 E0.05713
G1 X117.749 Y54.843 E0.05565
G1 X105.609 Y54.843 E0.90668
G1 X104.856 Y54.919 E0.05651
G1 X104.136 Y55.138 E0.05620
G1 X103.461 Y55.498 E0.05713
G1 X102.870 Y55.984 E0.05713
G1 X102.385 Y56.575 E0.05713
G1 X102.030 Y57.239 E0.05620
G1 X101.802 Y57.981 E0.05799
G1 X101.729 Y58.723 E0.05570
G1 X101.729 Y67.067 E0.62316
G1 X103.003 Y67.152 E0.09537
G1 X103.105 Y67.195 E0.00823
G1 X103.187 Y67.277 E0.00868
G1 X103.232 Y67.385 E0.00868
G1 X103.231 Y67.502 E0.00874
G1 X103.187 Y67.608 E0.00863
G1 X103.100 Y67.694 E0.00913
G1 X101.204 Y68.776 E0.16306
G1 X101.045 Y68.825 E0.01242
G1 X100.879 Y68.841 E0.01242
G1 X100.714 Y68.825 E0.01242
G1 X100.555 Y68.776 E0.01242
G1 X100.408 Y68.698 E0.01242
G1 X100.279 Y68.592 E0.01241
G1 X100.174 Y68.464 E0.01241
G1 X100.096 Y68.317 E0.01242
G1 X100.047 Y68.158 E0.01242
G1 X100.029 Y67.973 E0.01389
G1 X100.029 Y58.713 E0.69157
G1 X100.138 Y57.651 E0.07972
G1 X100.457 Y56.600 E0.08203
G1 X100.975 Y55.633 E0.08196
G1 X101.671 Y54.784 E0.08196
G1 X102.519 Y54.088 E0.08196
G1 X103.487 Y53.571 E0.08196
G1 X104.538 Y53.252 E0.08203
G1 X105.600 Y53.143 E0.07971
G1 X117.759 Y53.148 E0.90816
G1 X118.821 Y53.252 E0.07969
G1 X119.871 Y53.571 E0.08196
G1 X120.839 Y54.088 E0.08196
G1 X121.688 Y54.784 E0.08196
G1 X122.384 Y55.633 E0.08196
G1 X122.901 Y56.600 E0.08196
G1 X123.220 Y57.651 E0.08203
G1 X123.329 Y58.713 E0.07972
G1 X123.329 Y64.753 E0.45104
G1 X123.367 Y65.517 E0.05717
G1 X123.480 Y66.284 E0.05791
G1 X123.669 Y67.036 E0.05790
G1 X123.930 Y67.766 E0.05791
G1 X124.262 Y68.467 E0.05791
G1 X124.660 Y69.132 E0.05791
G1 X125.122 Y69.755 E0.05790
G1 X125.643 Y70.329 E0.05791
G1 X126.217 Y70.850 E0.05791
G1 X126.840 Y71.312 E0.05790
G1 X127.505 Y71.710 E0.05791
G1 X128.206 Y72.042 E0.05791
G1 X128.936 Y72.303 E0.05791
G1 X129.688 Y72.491 E0.05790
G1 X130.456 Y72.605 E0.05800
G1 X131.226 Y72.638 E0.05754
G1 X131.547 Y72.711 E0.02458
G1 X131.825 Y72.897 E0.02497
G1 X132.007 Y73.170 E0.02454
G1 X132.071 Y73.493 E0.02455
G1 X132.007 Y73.815 E0.02455
G1 X131.825 Y74.088 E0.02454
G1 X131.552 Y74.271 E0.02454
G1 X131.200 Y74.341 E0.02680
G1 X130.288 Y74.296 E0.06815
G1 X129.356 Y74.158 E0.07035
G1 X128.443 Y73.929 E0.07035
G1 X127.556 Y73.612 E0.07036
G1 X126.704 Y73.209 E0.07036
G1 X125.896 Y72.724 E0.07035
G1 X125.139 Y72.163 E0.07036
G1 X124.441 Y71.531 E0.07036
G1 X123.809 Y70.833 E0.07036
G1 X123.404 Y70.287 E0.05076
G1 X122.996 Y70.353 E0.03083
G1 X122.915 Y70.328 E0.00634
G1 X122.803 Y70.251 E0.01015
G1 X120.221 Y67.669 E0.27274
G1 X120.144 Y67.557 E0.01016
G1 X120.121 Y67.443 E0.00869
G1 X120.144 Y67.329 E0.00869
G1 X120.208 Y67.232 E0.00868
G1 X120.305 Y67.167 E0.00870
G1 X121.554 Y67.072 E0.09357
G1 X122.129 Y67.054 F6000.000
G1 X122.378 Y67.767 F6000.000
G1 X122.378 Y66.584 E0.08835 F780.000
G1 X122.772 Y66.535 E0.02966
G1 X122.952 Y67.254 E0.05531
G1 X123.238 Y68.053 E0.06340
G1 X123.601 Y68.820 E0.06340
G1 X123.970 Y69.437 E0.05366
G1 X123.176 Y69.565 E0.06008
G1 X121.440 Y67.830 E0.18333
G1 X122.303 Y67.772 E0.06456
G1 X122.543 Y66.186 F6000.000
G1 X122.499 Y65.578 E0.09424 F600.000
G1 X122.479 Y64.762 E0.12618
G1 X122.479 Y58.757 E0.92781
G1 X122.387 Y57.819 E0.14562
G1 X122.117 Y56.925 E0.14426
G1 X121.678 Y56.104 E0.14384
G1 X121.087 Y55.385 E0.14385
G1 X120.367 Y54.794 E0.14384
G1 X119.503 Y54.341 E0.15087
G1 X118.656 Y54.085 E0.13671
G1 X117.767 Y53.998 E0.13793
G1 X105.590 Y53.995 E1.88152
G1 X104.706 Y54.085 E0.13734
G1 X103.812 Y54.355 E0.14425
G1 X102.991 Y54.794 E0.14384
G1 X102.306 Y55.355 E0.13671
G1 X101.658 Y56.145 E0.15789
G1 X101.242 Y56.926 E0.13670
G1 X100.971 Y57.819 E0.14425
G1 X100.879 Y58.757 E0.14562
G1 X100.879 Y67.417 E1.33805
G1 X100.970 Y67.833 E0.06574
G1 X101.328 Y67.817 E0.05538
G1 X102.105 Y67.638 E0.12314
G1 E-4.00000 F3600.00000
G1 X124.096 Y69.795 F6000.000
G1 E4.00000 F3600.00000
G1 X124.466 Y70.294 E0.09588 F600.000
G1 X125.026 Y70.913 E0.12907
G1 X125.678 Y71.506 E0.13626
G1 X126.368 Y72.018 E0.13268
