; generated by Slic3r 1.2.9 on 2016-07-15 at 09:26:26

; external perimeters extrusion width = 0.50mm
; perimeters extrusion width = 0.50mm
; infill extrusion width = 0.50mm
; solid infill extrusion width = 0.50mm
; top infill extrusion width = 0.50mm

M107
M190 S65 ; set bed temperature
M104 S210 ; set temperature
T0

M109 S210 ; wait for temperature to be reached
G21 ; set units to millimeters
G90 ; use absolute coordinates
M83 ; use relative distances for extrusion
G1 E-4.00000 F3600.00000
G1 Z0.240 F6000.000
G1 X68.323 Y86.020 F6000.000
G1 E4.00000 F3600.00000
G1 X70.018 Y85.080 E0.14480 F600.000
G1 X71.424 Y84.867 E0.10622
G1 X123.576 Y84.867 E3.89491
G1 X125.473 Y85.262 E0.14480
G1 X127.055 Y86.384 E0.14480 F600.000
G1 X128.057 Y88.044 E0.14480
G1 X128.321 Y89.441 E0.10622
G1 X129.306 Y116.342 E2.01041
G1 X129.295 Y116.878 E0.04009
G1 X129.208 Y117.648 E0.05783
G1 X128.570 Y119.478 E0.14480
G1 X127.253 Y120.901 E0.14480
G1 X125.477 Y121.679 E0.14480
G1 X124.500 Y121.781 E0.07336
G1 X70.500 Y121.781 E4.03300
G1 X68.602 Y121.385 E0.14480
G1 X67.021 Y120.264 E0.14480
G1 X66.019 Y118.603 E0.14480
G1 X65.792 Y117.648 E0.07336
G1 X65.705 Y116.878 E0.05784
G1 X65.694 Y116.342 E0.04009
G1 X66.679 Y89.441 E2.01041
G1 X67.144 Y87.559 E0.14480
G1 X68.277 Y86.079 E0.13920
G1 E-4.00000 F3600.00000
G1 X124.164 Y116.632 F6000.000
G1 E4.00000 F3600.00000
G1 X104.836 Y116.632 E1.44358 F630.000
G1 X105.810 Y90.015 E1.98924
G1 X123.190 Y90.015 E1.29801
G1 X124.162 Y116.557 E1.98364
G1 X123.728 Y116.387 F6000.000
G1 X123.388 Y115.884 F6000.000
G1 X105.612 Y115.884 E1.32761 F900.000
G1 X106.532 Y90.764 E1.87736
G1 X122.468 Y90.764 E1.19023
G1 X123.385 Y115.809 E1.87176
G1 E-4.00000 F3600.00000
G1 X119.900 Y107.026 F6000.000
G1 E4.00000 F3600.00000
G1 X109.100 Y107.026 E0.80660 F630.000
G1 X109.100 Y93.116 E1.03889
G1 X119.900 Y93.116 E0.80660
G1 X119.900 Y106.951 E1.03329
G1 X119.900 Y107.526 F6000.000
G1 X120.648 Y107.774 F6000.000
G1 X108.352 Y107.774 E0.91840 F900.000
G1 X108.352 Y92.367 E1.15070
G1 X120.648 Y92.367 E0.91840
G1 X120.648 Y107.699 E1.14509
G1 E-4.00000 F3600.00000
G1 X122.139 Y94.441 F6000.000
G1 E4.00000 F3600.00000
G1 X121.781 Y94.083 E0.03853 F900.000
G1 X121.106 Y94.486 E0.05987
G1 X122.180 Y95.561 E0.11563
G1 X121.106 Y95.565 E0.08177
G1 X122.221 Y96.680 E0.12004
G1 X121.106 Y96.644 E0.08493
G1 X122.262 Y97.800 E0.12446
G1 X122.303 Y98.920 E0.08527
G1 X121.106 Y97.722 E0.12887
G1 X121.106 Y98.801 E0.08209
G1 X122.344 Y100.039 E0.13328
G1 X122.385 Y101.159 E0.08527
G1 X121.106 Y99.880 E0.13769
G1 X121.106 Y100.958 E0.08209
G1 X122.426 Y102.279 E0.14210
G1 X122.467 Y103.398 E0.08527
G1 X121.106 Y102.037 E0.14652
G1 X121.106 Y103.115 E0.08209
G1 X122.508 Y104.518 E0.15093
G1 X122.549 Y105.637 E0.08527
G1 X121.106 Y104.194 E0.15534
G1 X121.106 Y105.273 E0.08209
G1 X122.590 Y106.757 E0.15975
G1 X122.631 Y107.877 E0.08527
G1 X121.106 Y106.351 E0.16416
G1 X121.106 Y107.430 E0.08209
G1 X122.672 Y108.996 E0.16858
G1 X122.713 Y110.116 E0.08527
G1 X120.829 Y108.232 E0.20278
G1 X119.750 Y108.232 E0.08209
G1 X122.754 Y111.236 E0.32329
G1 X122.795 Y112.355 E0.08527
G1 X118.672 Y108.232 E0.44379
G1 X117.593 Y108.232 E0.08209
G1 X122.836 Y113.475 E0.56429
G1 X122.877 Y114.595 E0.08527
G1 X116.515 Y108.232 E0.68480
G1 X115.436 Y108.232 E0.08209
G1 X122.630 Y115.426 E0.77432
G1 X121.552 Y115.426 E0.08209
G1 X114.357 Y108.232 E0.77432
G1 X113.279 Y108.232 E0.08209
G1 X120.473 Y115.426 E0.77432
G1 X119.394 Y115.426 E0.08209
G1 X112.200 Y108.232 E0.77432
G1 X111.121 Y108.232 E0.08209
G1 X118.316 Y115.426 E0.77432
G1 X117.237 Y115.426 E0.08209
G1 X110.043 Y108.232 E0.77432
G1 X108.964 Y108.232 E0.08209
G1 X116.158 Y115.426 E0.77432
G1 X115.080 Y115.426 E0.08209
G1 X106.399 Y106.745 E0.93434
G1 X106.437 Y105.705 E0.07924
G1 X107.894 Y107.162 E0.15686
G1 X107.894 Y106.083 E0.08209
G1 X106.475 Y104.664 E0.15276
G1 X106.513 Y103.623 E0.07924
G1 X107.894 Y105.005 E0.14866
G1 X107.894 Y103.926 E0.08209
G1 X106.551 Y102.583 E0.14455
G1 X106.589 Y101.542 E0.07924
G1 X107.894 Y102.847 E0.14045
G1 X107.894 Y101.769 E0.08209
G1 X106.627 Y100.502 E0.13635
G1 X106.665 Y99.461 E0.07924
G1 X107.894 Y100.690 E0.13225
G1 X107.894 Y99.611 E0.08209
G1 X106.703 Y98.421 E0.12815
G1 X106.741 Y97.380 E0.07924
G1 X107.894 Y98.533 E0.12405
G1 X107.894 Y97.454 E0.08209
G1 X106.780 Y96.340 E0.11995
G1 X106.818 Y95.299 E0.07924
G1 X107.894 Y96.375 E0.11585
G1 X107.894 Y95.297 E0.08209
G1 X106.856 Y94.259 E0.11175
G1 E-4.00000 F3600.00000
G1 X106.360 Y107.786 F6000.000
G1 E4.00000 F3600.00000
G1 X114.001 Y115.426 E0.82234 F900.000
G1 X112.923 Y115.426 E0.08209
G1 X106.322 Y108.826 E0.71035
G1 X106.284 Y109.867 E0.07924
G1 X111.844 Y115.426 E0.59836
G1 X110.765 Y115.426 E0.08209
G1 X106.246 Y110.907 E0.48637
G1 X106.208 Y111.948 E0.07924
G1 X109.687 Y115.426 E0.37438
G1 X108.608 Y115.426 E0.08209
G1 X106.170 Y112.988 E0.26239
G1 X106.132 Y114.029 E0.07924
G1 X107.529 Y115.426 E0.15040
G1 X106.451 Y115.426 E0.08209
G1 X106.094 Y115.069 E0.03841
G1 E-4.00000 F3600.00000
G1 X107.389 Y93.632 F6000.000
G1 E4.00000 F3600.00000
G1 X107.419 Y91.993 E0.25324 F600.000
G1 X107.457 Y91.724 E0.04203
G1 X107.977 Y91.565 E0.08399
G1 X121.023 Y91.565 E2.01565
G1 X121.543 Y91.724 E0.08399
G1 X121.581 Y91.993 E0.04203
G1 X121.611 Y93.632 E0.25324
G1 E-4.00000 F3600.00000
G1 X90.164 Y116.632 F6000.000
G1 E4.00000 F3600.00000
G1 X70.836 Y116.632 E1.44358 F630.000
G1 X71.810 Y90.015 E1.98924
G1 X89.190 Y90.015 E1.29801
G1 X90.162 Y116.557 E1.98364
G1 X89.728 Y116.387 F6000.000
G1 X89.388 Y115.884 F6000.000
G1 X71.612 Y115.884 E1.32761 F900.000
G1 X72.532 Y90.764 E1.87736
G1 X88.468 Y90.764 E1.19023
G1 X89.385 Y115.809 E1.87176
G1 E-4.00000 F3600.00000
G1 X85.900 Y107.026 F6000.000
G1 E4.00000 F3600.00000
G1 X75.100 Y107.026 E0.80660 F630.000
G1 X75.100 Y93.116 E1.03889
G1 X85.900 Y93.116 E0.80660
G1 X85.900 Y106.951 E1.03329
G1 X85.900 Y107.526 F6000.000
G1 X86.648 Y107.774 F6000.000
G1 X74.352 Y107.774 E0.91840 F900.000
G1 X74.352 Y92.367 E1.15070
G1 X86.648 Y92.367 E0.91840
G1 X86.648 Y107.699 E1.14509
G1 E-4.00000 F3600.00000
G1 X88.139 Y94.441 F6000.000
G1 E4.00000 F3600.00000
G1 X87.781 Y94.083 E0.03853 F900.000
G1 X87.106 Y94.486 E0.05987
G1 X88.180 Y95.561 E0.11563
G1 X87.106 Y95.565 E0.08177
G1 X88.221 Y96.680 E0.12004
G1 X87.106 Y96.644 E0.08493
G1 X88.262 Y97.800 E0.12446
G1 X88.303 Y98.920 E0.08527
G1 X87.106 Y97.722 E0.12887
G1 X87.106 Y98.801 E0.08209
G1 X88.344 Y100.039 E0.13328
G1 X88.385 Y101.159 E0.08527
G1 X87.106 Y99.880 E0.13769
G1 X87.106 Y100.958 E0.08209
G1 X88.426 Y102.279 E0.14210
G1 X88.467 Y103.398 E0.08527
G1 X87.106 Y102.037 E0.14652
G1 X87.106 Y103.115 E0.08209
G1 X88.508 Y104.518 E0.15093
G1 X88.549 Y105.637 E0.08527
G1 X87.106 Y104.194 E0.15534
G1 X87.106 Y105.273 E0.08209
G1 X88.590 Y106.757 E0.15975
G1 X88.631 Y107.877 E0.08527
G1 X87.106 Y106.351 E0.16416
G1 X87.106 Y107.430 E0.08209
G1 X88.672 Y108.996 E0.16858
G1 X88.713 Y110.116 E0.08527
G1 X86.829 Y108.232 E0.20278
G1 X85.750 Y108.232 E0.08209
G1 X88.754 Y111.236 E0.32329
G1 X88.795 Y112.355 E0.08527
G1 X84.672 Y108.232 E0.44379
G1 X83.593 Y108.232 E0.08209
G1 X88.836 Y113.475 E0.56429
G1 X88.877 Y114.595 E0.08527
G1 X82.515 Y108.232 E0.68480
G1 X81.436 Y108.232 E0.08209
G1 X88.630 Y115.426 E0.77432
G1 X87.552 Y115.426 E0.08209
G1 X80.357 Y108.232 E0.77432
G1 X79.279 Y108.232 E0.08209
G1 X86.473 Y115.426 E0.77432
G1 X85.394 Y115.426 E0.08209
G1 X78.200 Y108.232 E0.77432
G1 X77.121 Y108.232 E0.08209
G1 X84.316 Y115.426 E0.77432
G1 X83.237 Y115.426 E0.08209
G1 X76.043 Y108.232 E0.77432
G1 X74.964 Y108.232 E0.08209
G1 X82.158 Y115.426 E0.77432
G1 X81.080 Y115.426 E0.08209
G1 X72.399 Y106.745 E0.93434
G1 X72.437 Y105.705 E0.07924
G1 X73.894 Y107.162 E0.15686
G1 X73.894 Y106.083 E0.08209
G1 X72.475 Y104.664 E0.15276
G1 X72.513 Y103.623 E0.07924
G1 X73.894 Y105.005 E0.14866
G1 X73.894 Y103.926 E0.08209
G1 X72.551 Y102.583 E0.14455
G1 X72.589 Y101.542 E0.07924
G1 X73.894 Y102.847 E0.14045
G1 X73.894 Y101.769 E0.08209
G1 X72.627 Y100.502 E0.13635
G1 X72.665 Y99.461 E0.07924
G1 X73.894 Y100.690 E0.13225
G1 X73.894 Y99.611 E0.08209
G1 X72.703 Y98.421 E0.12815
G1 X72.741 Y97.380 E0.07924
G1 X73.894 Y98.533 E0.12405
G1 X73.894 Y97.454 E0.08209
G1 X72.780 Y96.340 E0.11995
G1 X72.818 Y95.299 E0.07924
G1 X73.894 Y96.375 E0.11585
G1 X73.894 Y95.297 E0.08209
G1 X72.856 Y94.259 E0.11175
G1 E-4.00000 F3600.00000
G1 X72.360 Y107.786 F6000.000
G1 E4.00000 F3600.00000
G1 X80.001 Y115.426 E0.82234 F900.000
G1 X78.923 Y115.426 E0.08209
G1 X72.322 Y108.826 E0.71035
G1 X72.284 Y109.867 E0.07924
G1 X77.844 Y115.426 E0.59836
G1 X76.765 Y115.426 E0.08209
G1 X72.246 Y110.907 E0.48637
G1 X72.208 Y111.948 E0.07924
G1 X75.687 Y115.426 E0.37438
G1 X74.608 Y115.426 E0.08209
G1 X72.170 Y112.988 E0.26239
G1 X72.132 Y114.029 E0.07924
G1 X73.529 Y115.426 E0.15040
G1 X72.451 Y115.426 E0.08209
G1 X72.094 Y115.069 E0.03841
G1 E-4.00000 F3600.00000
G1 X73.389 Y93.632 F6000.000
G1 E4.00000 F3600.00000
G1 X73.419 Y91.993 E0.25324 F600.000
G1 X73.457 Y91.724 E0.04203
G1 X73.977 Y91.565 E0.08399
G1 X87.023 Y91.565 E2.01565
G1 X87.543 Y91.724 E0.08399
G1 X87.581 Y91.993 E0.04203
G1 X87.611 Y93.632 E0.25324
M104 S195 ; set temperature
M140 S57 ; wait for bed temperature to be reached
G1 E-4.00000 F3600.00000
G1 Z0.480 F6000.000
G1 X124.279 Y116.677 F6000.000
G1 E4.00000 F3600.00000
G1 X104.721 Y116.677 E0.87528 F1260.000
G1 X104.569 Y115.475 E0.05421
G1 X105.514 Y89.660 E1.15599
G1 X123.486 Y89.660 E0.80423
G1 X124.431 Y115.475 E1.15599
G1 X124.289 Y116.602 E0.05085
G1 X123.857 Y116.409 F6000.000
G1 X123.884 Y116.228 F6000.000
G1 X105.116 Y116.228 E0.83988 F1800.000
G1 X105.019 Y115.455 E0.03488
G1 X105.947 Y90.109 E1.13501
G1 X123.053 Y90.109 E0.76553
G1 X123.981 Y115.455 E1.13501
G1 X123.893 Y116.154 E0.03152
G1 E-4.00000 F3600.00000
G1 X119.750 Y106.770 F6000.000
G1 E4.00000 F3600.00000
G1 X109.250 Y106.770 E0.46989 F1260.000
G1 X109.250 Y93.160 E0.60907
G1 X119.750 Y93.160 E0.46989
G1 X119.750 Y106.695 E0.60572
G1 X119.750 Y107.270 F6000.000
G1 X120.198 Y107.219 F6000.000
G1 X108.802 Y107.219 E0.51003 F1800.000
G1 X108.802 Y92.712 E0.64922
G1 X120.198 Y92.712 E0.51003
G1 X120.198 Y107.144 E0.64586
G1 E-4.00000 F3600.00000
G1 X123.432 Y115.962 F6000.000
G1 E4.00000 F3600.00000
G1 X123.666 Y115.729 E0.01480 F1800.000
G1 X123.704 Y115.055 E0.03026
G1 X122.797 Y115.962 E0.05752
G1 X122.161 Y115.962 E0.02851
G1 X123.681 Y114.442 E0.09642
G1 X123.659 Y113.829 E0.02752
G1 X121.525 Y115.962 E0.13531
G1 X120.890 Y115.962 E0.02851
G1 X123.636 Y113.215 E0.17421
G1 X123.614 Y112.602 E0.02752
G1 X120.254 Y115.962 E0.21310
G1 X119.618 Y115.962 E0.02851
G1 X123.591 Y111.989 E0.25200
G1 X123.569 Y111.376 E0.02752
G1 X118.983 Y115.962 E0.29089
G1 X118.347 Y115.962 E0.02851
G1 X123.547 Y110.763 E0.32979
G1 X123.524 Y110.149 E0.02752
G1 X117.711 Y115.962 E0.36868
G1 X117.076 Y115.962 E0.02851
G1 X123.502 Y109.536 E0.40758
G1 X123.479 Y108.923 E0.02752
G1 X116.440 Y115.962 E0.44647
G1 X115.804 Y115.962 E0.02851
G1 X123.457 Y108.310 E0.48537
G1 X123.434 Y107.696 E0.02752
G1 X115.169 Y115.962 E0.52427
G1 X114.533 Y115.962 E0.02851
G1 X123.412 Y107.083 E0.56316
G1 X123.389 Y106.470 E0.02752
G1 X113.897 Y115.962 E0.60206
G1 X113.262 Y115.962 E0.02851
G1 X123.367 Y105.857 E0.64095
G1 X123.344 Y105.244 E0.02752
G1 X112.626 Y115.962 E0.67985
G1 X111.990 Y115.962 E0.02851
G1 X123.322 Y104.630 E0.71874
G1 X123.300 Y104.017 E0.02752
G1 X120.465 Y106.852 E0.17982
G1 X120.465 Y106.216 E0.02851
G1 X123.277 Y103.404 E0.17839
G1 X123.255 Y102.791 E0.02752
G1 X120.465 Y105.581 E0.17697
G1 X120.465 Y104.945 E0.02851
G1 X123.232 Y102.177 E0.17555
G1 X123.210 Y101.564 E0.02752
G1 X120.465 Y104.309 E0.17412
G1 X120.465 Y103.674 E0.02851
G1 X123.187 Y100.951 E0.17270
G1 X123.165 Y100.338 E0.02752
G1 X120.465 Y103.038 E0.17127
G1 X120.465 Y102.402 E0.02851
G1 X123.142 Y99.725 E0.16985
G1 X123.120 Y99.111 E0.02752
G1 X120.465 Y101.767 E0.16843
G1 X120.465 Y101.131 E0.02851
G1 X123.098 Y98.498 E0.16700
G1 X123.075 Y97.885 E0.02752
G1 X120.465 Y100.495 E0.16558
G1 X120.465 Y99.860 E0.02851
G1 X123.053 Y97.272 E0.16415
G1 X123.030 Y96.658 E0.02752
G1 X120.465 Y99.224 E0.16273
G1 X120.465 Y98.588 E0.02851
G1 X123.008 Y96.045 E0.16131
G1 X122.985 Y95.432 E0.02752
G1 X120.465 Y97.953 E0.15988
G1 X120.465 Y97.317 E0.02851
G1 X122.963 Y94.819 E0.15846
G1 X122.940 Y94.206 E0.02752
G1 X120.465 Y96.681 E0.15703
G1 X120.465 Y96.046 E0.02851
G1 X122.918 Y93.592 E0.15561
G1 X122.895 Y92.979 E0.02752
G1 X120.465 Y95.410 E0.15419
G1 X120.465 Y94.774 E0.02851
G1 X122.873 Y92.366 E0.15276
G1 X122.851 Y91.753 E0.02752
G1 X120.465 Y94.139 E0.15134
G1 X120.465 Y93.503 E0.02851
G1 X122.828 Y91.139 E0.14991
G1 X122.806 Y90.526 E0.02752
G1 X120.465 Y92.867 E0.14849
G1 X120.251 Y92.445 F6000.000
G1 X122.321 Y90.375 E0.13133 F1800.000
G1 X121.686 Y90.375 E0.02851
G1 X119.615 Y92.445 E0.13133
G1 X118.979 Y92.445 E0.02851
G1 X121.050 Y90.375 E0.13133
G1 X120.414 Y90.375 E0.02851
G1 X118.344 Y92.445 E0.13133
G1 X117.708 Y92.445 E0.02851
G1 X119.779 Y90.375 E0.13133
G1 X119.143 Y90.375 E0.02851
G1 X117.072 Y92.445 E0.13133
G1 X116.437 Y92.445 E0.02851
G1 X118.507 Y90.375 E0.13133
G1 X117.872 Y90.375 E0.02851
G1 X115.801 Y92.445 E0.13133
G1 X115.165 Y92.445 E0.02851
G1 X117.236 Y90.375 E0.13133
G1 X116.600 Y90.375 E0.02851
G1 X114.530 Y92.445 E0.13133
G1 X113.894 Y92.445 E0.02851
G1 X115.965 Y90.375 E0.13133
G1 X115.329 Y90.375 E0.02851
G1 X113.258 Y92.445 E0.13133
G1 X112.623 Y92.445 E0.02851
G1 X114.693 Y90.375 E0.13133
G1 X114.057 Y90.375 E0.02851
G1 X111.987 Y92.445 E0.13133
G1 X111.351 Y92.445 E0.02851
G1 X113.422 Y90.375 E0.13133
G1 X112.786 Y90.375 E0.02851
G1 X110.716 Y92.445 E0.13133
G1 X110.080 Y92.445 E0.02851
G1 X112.150 Y90.375 E0.13133
G1 X111.515 Y90.375 E0.02851
G1 X109.444 Y92.445 E0.13133
G1 X108.809 Y92.445 E0.02851
G1 X110.879 Y90.375 E0.13133
G1 X110.243 Y90.375 E0.02851
G1 X106.053 Y94.565 E0.26576
G1 X106.029 Y95.225 E0.02961
G1 X108.535 Y92.719 E0.15896
G1 X108.535 Y93.354 E0.02851
G1 X106.005 Y95.885 E0.16049
G1 X105.981 Y96.544 E0.02961
G1 X108.535 Y93.990 E0.16202
G1 X108.535 Y94.626 E0.02851
G1 X105.957 Y97.204 E0.16356
G1 X105.933 Y97.864 E0.02961
G1 X108.535 Y95.261 E0.16509
G1 X108.535 Y95.897 E0.02851
G1 X105.909 Y98.524 E0.16662
G1 X105.884 Y99.184 E0.02961
G1 X108.535 Y96.533 E0.16815
G1 X108.535 Y97.168 E0.02851
G1 X105.860 Y99.844 E0.16968
G1 X105.836 Y100.503 E0.02961
G1 X108.535 Y97.804 E0.17122
G1 X108.535 Y98.440 E0.02851
G1 X105.812 Y101.163 E0.17275
G1 X105.788 Y101.823 E0.02961
G1 X108.535 Y99.075 E0.17428
G1 X108.535 Y99.711 E0.02851
G1 X105.764 Y102.483 E0.17581
G1 X105.739 Y103.143 E0.02961
G1 X108.535 Y100.347 E0.17735
G1 X108.535 Y100.982 E0.02851
G1 X105.715 Y103.803 E0.17888
G1 X105.691 Y104.462 E0.02961
G1 X108.535 Y101.618 E0.18041
G1 X108.535 Y102.254 E0.02851
G1 X105.667 Y105.122 E0.18194
G1 X105.643 Y105.782 E0.02961
G1 X108.535 Y102.889 E0.18348
G1 X108.535 Y103.525 E0.02851
G1 X105.619 Y106.442 E0.18501
G1 X105.594 Y107.102 E0.02961
G1 X108.535 Y104.161 E0.18654
G1 X108.535 Y104.796 E0.02851
G1 X105.570 Y107.762 E0.18807
G1 X105.546 Y108.421 E0.02961
G1 X108.535 Y105.432 E0.18960
G1 X108.535 Y106.068 E0.02851
G1 X105.522 Y109.081 E0.19114
G1 X105.498 Y109.741 E0.02961
G1 X108.535 Y106.703 E0.19267
G1 X108.535 Y107.339 E0.02851
G1 X105.474 Y110.401 E0.19420
G1 X105.450 Y111.061 E0.02961
G1 X109.025 Y107.485 E0.22681
G1 X109.661 Y107.485 E0.02851
G1 X105.425 Y111.721 E0.26866
G1 X105.401 Y112.380 E0.02961
G1 X110.297 Y107.485 E0.31051
G1 X110.932 Y107.485 E0.02851
G1 X105.377 Y113.040 E0.35236
G1 X105.353 Y113.700 E0.02961
G1 X111.568 Y107.485 E0.39422
G1 X112.204 Y107.485 E0.02851
G1 X105.329 Y114.360 E0.43607
G1 X105.305 Y115.020 E0.02961
G1 X112.839 Y107.485 E0.47792
G1 X113.475 Y107.485 E0.02851
G1 X105.301 Y115.659 E0.51844
G1 X105.634 Y115.962 E0.02018
G1 X114.111 Y107.485 E0.53769
G1 X114.746 Y107.485 E0.02851
G1 X106.269 Y115.962 E0.53769
G1 X106.905 Y115.962 E0.02851
G1 X115.382 Y107.485 E0.53769
